X: 9815
T: Denis Murphy's
R: slide
M: 12/8
K: Gmajor
|:B3 BAB d2B G2A|BAB d2B ABA G2A|
B3 BAB d2B G2A|B2e e2d e3 d2c:|
|:B2d g2f g2e d2c|B2d g2f g3 a3|
bag agf gfe fed|B2e e2d e3 d2c:|

